static/fa/svgs/solid/comments-dollar.svg

<svg xmlns="http://www.w3.org/2000/svg" viewBox="0 0 640 512"><!--! Font Awesome Free 6.1.1 by @fontawesome - https://fontawesome.com License - https://fontawesome.com/license/free (Icons: CC BY 4.0, Fonts: SIL OFL 1.1, Code: MIT License) Copyright 2022 Fonticons, Inc.--><path d="M416 176C416 78.8 322.9 0 208 0S0 78.8 0 176c0 39.57 15.62 75.96 41.67 105.4-16.39 32.76-39.23 57.32-39.59 57.68-2.1 2.205-2.67 5.475-1.441 8.354C1.9 350.3 4.602 352 7.66 352c38.35 0 70.76-11.12 95.74-24.04C134.2 343.1 169.8 352 208 352c114.9 0 208-78.8 208-176zm-146.2 42.3c-3.6 20.9-19.4 33.8-41.8 39.4V268c0 11.03-8.953 20-20 20s-20-8.969-20-20v-10.8c-8.682-1.922-17.3-4.723-25.06-7.512l-4.266-1.5C148.3 244.5 142.8 233.1 146.5 222.7c3.688-10.41 15.11-15.81 25.52-12.22l4.469 1.625c7.844 2.812 16.72 6 23.66 7.031C213.8 221.3 229 219.3 230.4 211.5c.9-5.1 1.4-7.9-27.9-16.3l-5.8-1.7c-17.33-5.094-57.92-17-50.52-59.84 3.62-20.86 19.42-34.9 41.82-39.67V84c0-11.03 8.953-20 20-20s20 8.969 20 20v10.63c5.453 1.195 11.34 2.789 18.56 5.273C257 103.5 262.5 114.9 258.9 125.4c-3.6 10.4-15.1 15.9-25.5 12.3-5.859-2.031-12-4-17.59-4.844-13.61-2.056-29.71-.156-30.21 7.644-.8 3.6-1.3 7.7 21.5 14.7l6.4 1.6c22.3 6.3 63.8 18.2 56.3 61.5zm329.8 225.4C624.8 413.9 640 376.6 640 336c0-97.2-86-176-192-176-.315 0-.62.041-.934.043C447.5 165.3 448 170.6 448 176c0 98.62-79.68 181.2-186.1 202.5C282.7 455.1 357.1 512 448 512c33.69 0 65.32-8.008 92.85-21.98C565.2 502 596.1 512 632.3 512c3.059 0 5.76-1.725 7.02-4.605 1.229-2.879.658-6.148-1.441-8.354C637.6 498.7 615.9 475.3 599.6 443.7z"/></svg>

<svg xmlns="http://www.w3.org/2000/svg" viewBox="0 0 640 512"><!--! Font Awesome Free 6.1.1 by @fontawesome - https://fontawesome.com License - https://fontawesome.com/license/free (Icons: CC BY 4.0, Fonts: SIL OFL 1.1, Code: MIT License) Copyright 2022 Fonticons, Inc. --><path d="M416 176C416 78.8 322.9 0 208 0S0 78.8 0 176c0 39.57 15.62 75.96 41.67 105.4c-16.39 32.76-39.23 57.32-39.59 57.68c-2.1 2.205-2.67 5.475-1.441 8.354C1.9 350.3 4.602 352 7.66 352c38.35 0 70.76-11.12 95.74-24.04C134.2 343.1 169.8 352 208 352C322.9 352 416 273.2 416 176zM269.8 218.3C266.2 239.2 250.4 252.1 228 257.7V268c0 11.03-8.953 20-20 20s-20-8.969-20-20V257.2c-8.682-1.922-17.3-4.723-25.06-7.512l-4.266-1.5C148.3 244.5 142.8 233.1 146.5 222.7c3.688-10.41 15.11-15.81 25.52-12.22l4.469 1.625c7.844 2.812 16.72 6 23.66 7.031C213.8 221.3 229 219.3 230.4 211.5C231.3 206.4 231.8 203.6 202.5 195.2L196.7 193.5c-17.33-5.094-57.92-17-50.52-59.84C149.8 112.8 165.6 98.76 188 93.99V84c0-11.03 8.953-20 20-20s20 8.969 20 20v10.63c5.453 1.195 11.34 2.789 18.56 5.273C257 103.5 262.5 114.9 258.9 125.4C255.3 135.8 243.8 141.3 233.4 137.7c-5.859-2.031-12-4-17.59-4.844C202.2 130.8 186.1 132.7 185.6 140.5C184.8 144.1 184.3 148.2 207.1 155.2L213.5 156.8C235.8 163.1 277.3 175 269.8 218.3zM599.6 443.7C624.8 413.9 640 376.6 640 336C640 238.8 554 160 448 160c-.3145 0-.6191 .041-.9336 .043C447.5 165.3 448 170.6 448 176c0 98.62-79.68 181.2-186.1 202.5C282.7 455.1 357.1 512 448 512c33.69 0 65.32-8.008 92.85-21.98C565.2 502 596.1 512 632.3 512c3.059 0 5.76-1.725 7.02-4.605c1.229-2.879 .6582-6.148-1.441-8.354C637.6 498.7 615.9 475.3 599.6 443.7z"/></svg>
